X:1
T:The Lazy Song
T:The Lazy Song
T:Bruno Mars
C:Bruno Mars
Z:All Rights Reserved
L:1/4
Q:1/4=120
M:4/4
K:B
V:1 treble 
%%MIDI program 53
%%MIDI control 7 99
%%MIDI control 10 64
V:1
 z2 z z/ F/ |S"B" d d d d |"F#" c B c d- |"E" d/B/ G z2 | B/c/ d d/c/ B |"B" d d d d | %6
"F#" c B c B |"E" G2 z2 | B/c/ d d/c/ B |"B" d f f/ d g/- |"F#" g/ f g/- g2 |"E" g f/d/- d/ c c/- | %12
 c/ d B/ G G/B/ |"B" d d d d |"D#" c B c d- |O"E" d/B/ G z2 | z2 z/ B/ B/c/ ||"B" d/c/ d d d | %18
"F#" c/ c B/ d c |"E" c/B/ c/B/ c c/B/ | c c/B/ d c |"B" d f f g |"F#" c c/B/ d B |"E" G2 z2 | %24
 z B2 B/c/ |"B" d/c/d/c/ d e |"F#" c/B/ c/B/ d/ c3/2 |"E" c/B/ c/B/ c/B/ c/B/ | c/B/ c/B/ d/ c B/ | %29
"B" d f f g |"F#" c B c d- |"E" d B G2 | z2 B d |"C#m" e e e/d/ z |"D#m" z f f/ d d/ | %35
"E" g/ f f/- f/ g d/ |"F#" c3 z/ B/!D.S.! ||O e d c B- |"B" B4 |] %39

